public/images/icon/check-circle.svg

<svg fill="none" height="25" viewBox="0 0 24 25" width="24" xmlns="http://www.w3.org/2000/svg"><g stroke="#000" stroke-linecap="round" stroke-linejoin="round" stroke-width="2"><path d="m22 11.5799v.92c-.0012 2.1564-.6995 4.2546-1.9907 5.9818-1.2911 1.7271-3.106 2.9906-5.1739 3.6021-2.068.6114-4.2781.538-6.30093-.2094-2.02279-.7473-3.74982-2.1284-4.92351-3.9375-1.17369-1.809-1.73117-3.949-1.58928-6.1007.14188-2.15177.97553-4.20001 2.3766-5.83926 1.40107-1.63926 3.29451-2.78169 5.39791-3.25693 2.10341-.47524 4.30411-.25781 6.27381.61985"/><path d="m22 4.5-10 10.01-3-3"/></g></svg>

<svg width="24" height="25" viewBox="0 0 24 25" fill="none" xmlns="http://www.w3.org/2000/svg">
<path d="M22 11.5799V12.4999C21.9988 14.6563 21.3005 16.7545 20.0093 18.4817C18.7182 20.2088 16.9033 21.4723 14.8354 22.0838C12.7674 22.6952 10.5573 22.6218 8.53447 21.8744C6.51168 21.1271 4.78465 19.746 3.61096 17.9369C2.43727 16.1279 1.87979 13.9879 2.02168 11.8362C2.16356 9.68443 2.99721 7.63619 4.39828 5.99694C5.79935 4.35768 7.69279 3.21525 9.79619 2.74001C11.8996 2.26477 14.1003 2.4822 16.07 3.35986" stroke="black" stroke-width="2" stroke-linecap="round" stroke-linejoin="round"/>
<path d="M22 4.5L12 14.51L9 11.51" stroke="black" stroke-width="2" stroke-linecap="round" stroke-linejoin="round"/>
</svg>
